tools/download-figma-icons/icons/outlined-large/cash.svg

<svg width="64" height="64" viewBox="0 0 64 64" fill="none" xmlns="http://www.w3.org/2000/svg">
<path fill-rule="evenodd" clip-rule="evenodd" d="M58.396 41.5371C55.43 43.1741 50.666 44.1501 45.65 44.1501C45.18 44.1501 44.711 44.1401 44.225 44.1201C43.829 44.1111 43.433 44.0921 43.049 44.0641C42.519 44.0261 42.008 43.9761 41.465 43.9161C41.052 43.8791 40.638 43.8221 40.256 43.7671C39.883 43.7101 39.52 43.6521 39.207 43.5951L39.021 43.5571C38.628 43.4821 38.236 43.4081 37.84 43.3091C37.484 43.2261 37.136 43.1451 36.807 43.0461L36.625 42.9991C36.3 42.9051 35.996 42.8141 35.668 42.7011C35.443 42.6291 35.217 42.5571 35.007 42.4701C34.973 42.4561 34.945 42.4471 34.91 42.4331C34.668 42.3441 34.435 42.2541 34.181 42.1431C33.755 41.9681 33.334 41.7651 32.891 41.5181C32.748 41.4381 32.606 41.3591 32.476 41.2781C32.268 41.1481 32.079 41.0161 31.899 40.8871C31.853 40.8531 31.812 40.8201 31.768 40.7871L31.341 40.4331C31.257 40.3551 31.171 40.2791 31.094 40.1951L31.011 40.1111C30.93 40.0361 30.865 39.9461 30.802 39.8651C30.757 39.8081 30.712 39.7451 30.682 39.6981L30.62 39.6031C30.591 39.5591 30.562 39.5171 30.54 39.4761C30.504 39.4121 30.467 39.3451 30.416 39.2061C30.402 39.1721 30.389 39.1391 30.374 39.0911L30.313 38.7991C30.305 38.7421 30.3 38.6861 30.3 38.6301V34.7831V34.3371C30.406 34.4241 30.528 34.5091 30.64 34.5941C30.725 34.6591 30.808 34.7251 30.898 34.7891C31.202 35.0081 31.523 35.2251 31.883 35.4431C32.709 35.9431 33.642 36.4001 34.661 36.8061C37.794 38.0401 41.698 38.7201 45.65 38.7201C50.976 38.7201 55.998 37.5251 59.427 35.4431C59.761 35.2411 60.074 35.0281 60.374 34.8111C60.467 34.7441 60.555 34.6741 60.646 34.6041C60.763 34.5151 60.888 34.4271 61 34.3351V38.6301C61 39.5561 60.048 40.6161 58.396 41.5371ZM58.425 49.9671C55.45 51.6091 50.674 52.5901 45.65 52.5901C40.628 52.5901 35.861 51.6091 32.897 49.9681C32.43 49.7091 32 49.4201 31.598 49.0911C31.506 49.0141 31.415 48.9381 31.331 48.8611L31.224 48.7661C31.082 48.6251 30.957 48.4921 30.859 48.3801C30.665 48.1401 30.519 47.8961 30.416 47.6361C30.406 47.6111 30.396 47.5891 30.387 47.5651L30.385 47.4291L30.322 47.2981C30.318 47.2731 30.314 47.2441 30.31 47.2091C30.303 47.1651 30.3 47.1181 30.3 47.0701V43.4341C30.486 43.5641 30.68 43.6931 30.882 43.8201C31.05 43.9261 31.238 44.0311 31.471 44.1621C31.979 44.4431 32.506 44.6981 33.008 44.9041C33.269 45.0181 33.538 45.1221 33.761 45.2041C33.794 45.2171 33.826 45.2321 33.86 45.2441C34.144 45.3611 34.446 45.4601 34.72 45.5481C35.05 45.6621 35.391 45.7661 35.751 45.8691C35.834 45.8971 35.918 45.9191 36.011 45.9381C36.378 46.0471 36.762 46.1391 37.137 46.2261C37.144 46.2281 37.151 46.2291 37.157 46.2301C37.162 46.2311 37.167 46.2331 37.171 46.2341C37.588 46.3281 38.017 46.4211 38.457 46.5031L38.614 46.5351C39 46.6071 39.397 46.6711 39.816 46.7341C40.261 46.7991 40.728 46.8611 41.163 46.9001C41.711 46.9631 42.261 47.0151 42.833 47.0571C43.267 47.0881 43.711 47.1091 44.129 47.1191C44.629 47.1401 45.139 47.1501 45.65 47.1501C51.231 47.1501 56.405 46.0611 59.851 44.1611C60.274 43.9261 60.656 43.6851 61 43.4441V47.0701C61 47.9921 60.057 49.0501 58.425 49.9671ZM61 55.4801C61 57.7851 55.16 61.0001 45.65 61.0001C36.14 61.0001 30.3 57.7851 30.3 55.4801V51.8741C30.337 51.9001 30.38 51.9221 30.418 51.9481C30.746 52.1751 31.084 52.3931 31.444 52.5931C34.882 54.4971 40.06 55.5901 45.65 55.5901C51.241 55.5901 56.425 54.4981 59.884 52.5881C60.294 52.3581 60.665 52.1251 61 51.8901V55.4801ZM18.36 50.5501C8.843 50.5501 3 47.3351 3 45.0301V41.4231C3.038 41.4491 3.083 41.4731 3.121 41.4991C3.445 41.7221 3.786 41.9401 4.16 42.1511C4.316 42.2351 4.471 42.3171 4.542 42.3471C4.783 42.4781 5.037 42.6001 5.256 42.6941C6.271 43.1581 7.41 43.5651 8.631 43.9031C9.277 44.0861 9.945 44.2471 10.592 44.3761C10.991 44.4621 11.389 44.5381 11.776 44.5991C12.083 44.6511 12.404 44.7041 12.728 44.7471L13.673 44.8691C14.202 44.9331 14.741 44.9751 15.347 45.0201C15.763 45.0511 16.179 45.0791 16.561 45.0881C17.26 45.1241 17.974 45.1331 18.677 45.1271C19.176 45.1231 19.671 45.1141 20.132 45.0891C20.498 45.0791 20.863 45.0581 21.25 45.0361C21.821 44.9941 22.373 44.9421 22.869 44.8841C23.131 44.8611 23.395 44.8281 23.654 44.7951L24.101 44.7331C24.374 44.6931 24.628 44.6521 24.89 44.6031C25.082 44.5791 25.256 44.5471 25.354 44.5241C25.586 44.4911 25.809 44.4481 26.031 44.3951C26.158 44.3721 26.284 44.3471 26.4 44.3211C26.515 44.2961 26.624 44.2691 26.721 44.2451C26.917 44.2051 27.111 44.1611 27.3 44.1151V47.0701V49.4201C24.664 50.1611 21.598 50.5501 18.36 50.5501ZM3 33.0061C3.106 33.0801 3.221 33.1531 3.333 33.2261C3.404 33.2721 3.468 33.3191 3.542 33.3651C3.733 33.4851 3.934 33.6041 4.145 33.7241C7.594 35.6281 12.776 36.7201 18.36 36.7201C19.071 36.7201 19.772 36.6961 20.467 36.6611C20.617 36.6531 20.765 36.6461 20.914 36.6381C21.587 36.5971 22.253 36.5411 22.908 36.4681C23.016 36.4561 23.122 36.4401 23.23 36.4271C23.825 36.3551 24.41 36.2691 24.983 36.1711C25.091 36.1521 25.202 36.1371 25.309 36.1171C25.927 36.0051 26.531 35.8751 27.119 35.7311C27.178 35.7181 27.242 35.7081 27.3 35.6931V38.6301V41.0121C27.294 41.0131 27.289 41.0151 27.282 41.0161C26.885 41.1201 26.48 41.2241 26.038 41.3241C25.905 41.3571 25.763 41.3911 25.618 41.4201L25.385 41.4651C25.236 41.5021 25.084 41.5321 24.844 41.5691C24.733 41.5921 24.615 41.6151 24.489 41.6301L24.377 41.6461C24.158 41.6891 23.945 41.7241 23.719 41.7581C23.634 41.7661 23.56 41.7781 23.5 41.7901L23.271 41.8191C23.053 41.8481 22.832 41.8761 22.566 41.8991C22.068 41.9581 21.559 42.0061 21.052 42.0431C20.718 42.0621 20.382 42.0811 20.011 42.0921C18.921 42.1501 17.851 42.1521 16.675 42.0901C16.298 42.0811 15.929 42.0551 15.509 42.0241C15.012 41.9861 14.515 41.9481 14.042 41.8921L13.119 41.7731C12.837 41.7351 12.556 41.6881 12.262 41.6391C11.911 41.5831 11.569 41.5181 11.204 41.4391C10.61 41.3201 10.019 41.1791 9.44 41.0141C8.362 40.7171 7.374 40.3631 6.47 39.9511C6.304 39.8801 6.138 39.8011 5.894 39.6711C5.79 39.6221 5.685 39.5651 5.606 39.5231C4.243 38.7561 3.347 37.8941 3.083 37.0991L3.014 36.8261C3.008 36.7591 3 36.6841 3 36.6101V33.0061ZM3 24.5631C3.352 24.8091 3.742 25.0541 4.175 25.2941C7.616 27.1911 12.786 28.2801 18.36 28.2801C19.126 28.2801 19.882 28.2561 20.63 28.2151C20.872 28.2021 21.106 28.1801 21.345 28.1621C21.848 28.1261 22.347 28.0861 22.837 28.0321C23.111 28.0021 23.377 27.9661 23.646 27.9311C24.094 27.8711 24.537 27.8061 24.971 27.7311C25.238 27.6861 25.501 27.6401 25.762 27.5891C26.194 27.5051 26.613 27.4121 27.027 27.3131C27.188 27.2741 27.361 27.2461 27.519 27.2061C27.47 27.3801 27.441 27.5571 27.409 27.7331C27.393 27.8171 27.369 27.8991 27.357 27.9831C27.32 28.2501 27.3 28.5191 27.3 28.7901V32.5881C27.294 32.5891 27.29 32.5911 27.284 32.5931C26.687 32.7591 26.059 32.9031 25.416 33.0341C25.32 33.0541 25.227 33.0741 25.131 33.0931C24.509 33.2131 23.867 33.3151 23.211 33.4011C23.093 33.4171 22.973 33.4331 22.854 33.4461C22.192 33.5261 21.519 33.5921 20.836 33.6361C20.738 33.6421 20.638 33.6461 20.539 33.6521C19.819 33.6931 19.091 33.7201 18.36 33.7201C13.342 33.7201 8.57 32.7391 5.604 31.1021C3.95 30.1731 3 29.1151 3 28.2001V24.5631ZM3 15.4551C3.117 15.5501 3.246 15.6411 3.368 15.7331C3.458 15.8031 3.544 15.8721 3.638 15.9391C3.939 16.1561 4.253 16.3681 4.589 16.5711C8.011 18.6551 13.03 19.8501 18.36 19.8501C23.674 19.8501 28.696 18.6561 32.139 16.5711C32.475 16.3671 32.789 16.1531 33.09 15.9341C33.177 15.8711 33.259 15.8061 33.344 15.7411C33.466 15.6471 33.595 15.5581 33.71 15.4621V19.7601C33.71 20.5581 33.015 21.2971 32.43 21.7761L32.112 22.0461L31.752 22.2711C31.535 22.4121 31.303 22.5451 31.094 22.6621L31.039 22.6941C30.835 22.8061 30.609 22.9071 30.39 23.0121C30.206 23.1001 30.031 23.1921 29.836 23.2751C29.606 23.3741 29.355 23.4631 29.111 23.5561C28.907 23.6321 28.712 23.7131 28.5 23.7851C28.239 23.8741 27.959 23.9511 27.685 24.0321C27.467 24.0971 27.259 24.1671 27.034 24.2261C26.741 24.3041 26.431 24.3701 26.126 24.4401C25.902 24.4911 25.685 24.5491 25.454 24.5961C25.132 24.6611 24.795 24.7141 24.463 24.7701C24.234 24.8091 24.012 24.8541 23.779 24.8901C23.426 24.9411 23.062 24.9801 22.701 25.0221C22.475 25.0491 22.254 25.0821 22.025 25.1031C21.626 25.1421 21.217 25.1661 20.81 25.1921C20.61 25.2051 20.415 25.2251 20.213 25.2351C19.601 25.2651 18.983 25.2801 18.36 25.2801C13.351 25.2801 8.59 24.3041 5.627 22.6691C3.958 21.7431 3 20.6831 3 19.7601V15.4551ZM18.36 3.00012C27.406 3.00012 33.71 6.65212 33.71 9.93012C33.71 11.3321 32.599 12.7811 30.584 14.0071C27.597 15.8141 23.142 16.8501 18.36 16.8501C13.565 16.8501 9.115 15.8141 6.144 14.0061C4.117 12.7821 3 11.3351 3 9.93012C3 6.65212 9.308 3.00012 18.36 3.00012ZM61 28.7901C61 30.6981 59.041 32.1701 57.872 32.8781C54.897 34.6831 50.443 35.7201 45.65 35.7201C42.065 35.7201 38.552 35.1141 35.765 34.0161C34.904 33.6741 34.121 33.2911 33.438 32.8781C32.816 32.5011 32.321 32.1411 31.911 31.7631C30.842 30.8051 30.3 29.8051 30.3 28.7901C30.3 28.5991 30.321 28.4111 30.358 28.2281C30.371 28.1671 30.396 28.1101 30.412 28.0501C30.444 27.9311 30.474 27.8091 30.519 27.6941C30.548 27.6231 30.588 27.5561 30.622 27.4851C30.668 27.3871 30.711 27.2861 30.767 27.1911C30.81 27.1171 30.863 27.0481 30.911 26.9751C30.967 26.8901 31.021 26.8031 31.083 26.7211C31.134 26.6531 31.191 26.5911 31.246 26.5261C31.313 26.4441 31.378 26.3611 31.451 26.2831C31.502 26.2271 31.557 26.1771 31.611 26.1241C31.691 26.0421 31.77 25.9591 31.853 25.8831C31.897 25.8431 31.941 25.8081 31.984 25.7691C32.081 25.6831 32.177 25.5981 32.275 25.5191C32.298 25.5011 32.32 25.4851 32.343 25.4681C32.447 25.3851 32.55 25.3061 32.653 25.2311L32.773 25.1621L32.779 25.1551C32.821 25.1311 32.867 25.1001 32.91 25.0761C33.042 24.9981 33.174 24.9191 33.312 24.8311C33.351 24.8061 33.389 24.7861 33.429 24.7601L33.655 24.6081C33.699 24.5771 33.742 24.5471 33.785 24.5161C34.396 24.1711 35.059 23.8591 35.764 23.5841C38.545 22.4781 42.056 21.8701 45.65 21.8701C54.696 21.8701 61 25.5161 61 28.7901ZM45.65 18.8701C42.453 18.8701 39.4 19.2981 36.693 20.1011C36.702 19.9851 36.71 19.8681 36.71 19.7601V9.93012C36.71 4.36112 28.65 0.00012207 18.36 0.00012207C8.065 0.00012207 0 4.36112 0 9.93012V19.7601V28.2001V36.6101V45.0301C0 50.5631 9.459 53.5501 18.36 53.5501C21.547 53.5501 24.593 53.1911 27.3 52.5161V55.4801C27.3 60.3371 35.189 64.0001 45.65 64.0001C56.111 64.0001 64 60.3371 64 55.4801V47.0701V38.6301V28.7901C64 23.2271 55.939 18.8701 45.65 18.8701Z" fill="black"/>
</svg>

<svg width="64" height="64" viewBox="0 0 64 64" fill="none" xmlns="http://www.w3.org/2000/svg"><path fill-rule="evenodd" clip-rule="evenodd" d="M58.396 41.537c-2.966 1.637-7.73 2.613-12.746 2.613-.47 0-.939-.01-1.425-.03a23.637 23.637 0 0 1-1.176-.056 40.767 40.767 0 0 1-1.584-.148 22.836 22.836 0 0 1-1.209-.149 38.732 38.732 0 0 1-1.049-.172l-.186-.038c-.393-.075-.785-.149-1.181-.248-.356-.083-.704-.164-1.033-.263L36.625 43a19.417 19.417 0 0 1-.957-.298c-.225-.072-.451-.144-.661-.23-.034-.015-.062-.024-.097-.038a12.817 12.817 0 0 1-.729-.29 11.94 11.94 0 0 1-1.29-.625c-.143-.08-.285-.159-.415-.24-.208-.13-.397-.262-.577-.39-.046-.035-.087-.068-.131-.1l-.427-.355c-.084-.078-.17-.154-.247-.238l-.083-.084c-.081-.075-.146-.165-.209-.246a2.214 2.214 0 0 1-.12-.167l-.062-.095c-.029-.044-.058-.086-.08-.127a1.61 1.61 0 0 1-.124-.27 1.285 1.285 0 0 1-.042-.115l-.061-.292a1.214 1.214 0 0 1-.013-.169v-4.293c.106.087.228.172.34.257.085.065.168.131.258.195.304.22.625.436.985.654.826.5 1.759.957 2.778 1.363 3.133 1.234 7.037 1.914 10.989 1.914 5.326 0 10.348-1.195 13.777-3.277.334-.202.647-.415.947-.632.093-.067.181-.137.272-.207.117-.089.242-.177.354-.269v4.295c0 .926-.952 1.986-2.604 2.907Zm.029 8.43C55.45 51.61 50.674 52.59 45.65 52.59c-5.022 0-9.789-.98-12.753-2.622a8.693 8.693 0 0 1-1.299-.877c-.092-.077-.183-.153-.267-.23l-.107-.095a7.771 7.771 0 0 1-.365-.386 2.841 2.841 0 0 1-.443-.744l-.029-.07-.002-.137-.063-.13a1.998 1.998 0 0 1-.022-.229v-3.636c.186.13.38.26.582.386.168.106.356.211.589.342.508.281 1.035.536 1.537.742.261.114.53.218.753.3.033.013.065.028.099.04.284.117.586.216.86.304.33.114.671.218 1.031.321.083.028.167.05.26.07.367.108.751.2 1.126.287l.02.004.014.004c.417.094.846.187 1.286.27l.157.031c.386.072.783.136 1.202.2.445.064.912.126 1.347.165.548.063 1.098.115 1.67.157.434.031.878.052 1.296.062.5.021 1.01.031 1.521.031 5.581 0 10.755-1.089 14.201-2.989.423-.235.805-.476 1.149-.717v3.626c0 .922-.943 1.98-2.575 2.897ZM61 55.48C61 57.785 55.16 61 45.65 61S30.3 57.785 30.3 55.48v-3.606c.037.026.08.048.118.074.328.227.666.445 1.026.645 3.438 1.904 8.616 2.997 14.206 2.997 5.591 0 10.775-1.092 14.234-3.002.41-.23.781-.463 1.116-.698v3.59Zm-42.64-4.93C8.843 50.55 3 47.335 3 45.03v-3.607c.038.026.083.05.121.076.324.223.665.441 1.039.652.156.084.311.166.382.196.241.131.495.253.714.347a22.79 22.79 0 0 0 3.375 1.21c.646.182 1.314.343 1.961.472.399.086.797.162 1.184.223.307.052.628.105.952.148l.945.122c.529.064 1.068.106 1.674.151.416.031.832.06 1.214.068.699.036 1.413.045 2.116.04.499-.005.994-.014 1.455-.039.366-.01.731-.03 1.118-.053a38.383 38.383 0 0 0 1.619-.152c.262-.023.526-.056.785-.089l.447-.062c.273-.04.527-.08.789-.13.192-.024.366-.056.464-.079.232-.033.455-.076.677-.129.127-.023.253-.048.369-.074.115-.025.224-.052.321-.076.196-.04.39-.084.579-.13v5.305c-2.636.741-5.702 1.13-8.94 1.13ZM3 33.006c.106.074.221.147.333.22.071.046.135.093.209.14.191.12.392.238.603.358 3.449 1.904 8.631 2.996 14.215 2.996a41.8 41.8 0 0 0 2.107-.059l.447-.023a39.958 39.958 0 0 0 1.994-.17c.108-.012.214-.028.322-.04a37.47 37.47 0 0 0 1.753-.257c.108-.019.219-.034.326-.054a30.407 30.407 0 0 0 1.81-.386c.059-.013.123-.023.181-.038v5.319l-.018.004c-.397.104-.802.208-1.244.308a9.41 9.41 0 0 1-.42.096l-.233.045a5.805 5.805 0 0 1-.541.104 4.147 4.147 0 0 1-.355.061l-.112.016a14.782 14.782 0 0 1-.877.144l-.229.03a14.72 14.72 0 0 1-.705.08c-.498.058-1.007.106-1.514.143-.334.02-.67.038-1.041.05-1.09.057-2.16.06-3.336-.003a23.258 23.258 0 0 1-1.166-.066 36.017 36.017 0 0 1-1.467-.132l-.923-.119c-.282-.038-.563-.085-.857-.134a19.324 19.324 0 0 1-1.058-.2 22.762 22.762 0 0 1-1.764-.425 19.887 19.887 0 0 1-2.97-1.063 7.123 7.123 0 0 1-.576-.28c-.104-.049-.209-.106-.288-.148-1.363-.767-2.259-1.629-2.523-2.424l-.069-.273C3.008 36.76 3 36.684 3 36.61v-3.604Zm0-8.443c.352.246.742.491 1.175.731 3.441 1.897 8.611 2.986 14.185 2.986.766 0 1.522-.024 2.27-.065.242-.013.476-.035.715-.053a39.228 39.228 0 0 0 1.492-.13c.274-.03.54-.066.809-.1a35.373 35.373 0 0 0 2.116-.343 30.22 30.22 0 0 0 1.265-.276c.161-.039.334-.067.492-.107-.049.174-.078.351-.11.527-.016.084-.04.166-.052.25a5.873 5.873 0 0 0-.057.807v3.798l-.016.005c-.597.166-1.225.31-1.868.441l-.285.06a32.358 32.358 0 0 1-2.277.352c-.662.08-1.335.146-2.018.19l-.297.016c-.72.041-1.448.068-2.179.068-5.018 0-9.79-.98-12.756-2.618C3.95 30.173 3 29.115 3 28.2v-3.637Zm0-9.108c.117.095.246.186.368.278.09.07.176.14.27.206.301.217.615.43.951.632 3.422 2.084 8.441 3.28 13.771 3.28 5.314 0 10.336-1.195 13.779-3.28.336-.204.65-.418.951-.637.087-.063.169-.128.254-.193.122-.094.251-.183.366-.279v4.298c0 .798-.695 1.537-1.28 2.016l-.318.27-.36.225c-.217.141-.449.274-.658.391l-.055.032c-.204.112-.43.213-.649.318-.184.088-.359.18-.554.263-.23.1-.481.188-.725.281-.204.076-.399.157-.611.23-.261.088-.541.165-.815.246-.218.065-.426.135-.651.194-.293.078-.603.144-.908.214-.224.051-.441.11-.672.156-.322.065-.659.118-.991.174-.229.04-.451.084-.684.12-.353.051-.717.09-1.078.132-.226.027-.447.06-.676.081-.399.04-.808.063-1.215.09-.2.012-.395.032-.597.042-.612.03-1.23.045-1.853.045-5.009 0-9.77-.976-12.733-2.61C3.958 21.742 3 20.682 3 19.76v-4.305ZM18.36 3c9.046 0 15.35 3.652 15.35 6.93 0 1.402-1.111 2.851-3.126 4.077-2.987 1.807-7.442 2.843-12.224 2.843-4.795 0-9.245-1.036-12.216-2.844C4.117 12.782 3 11.336 3 9.93 3 6.652 9.308 3 18.36 3ZM61 28.79c0 1.908-1.959 3.38-3.128 4.088-2.975 1.805-7.429 2.842-12.222 2.842-3.585 0-7.098-.606-9.885-1.704a15.758 15.758 0 0 1-2.327-1.138c-.622-.377-1.117-.737-1.527-1.115-1.069-.958-1.611-1.958-1.611-2.973 0-.19.021-.379.058-.562.013-.06.038-.118.054-.178.032-.119.062-.24.107-.356.029-.07.069-.138.103-.209.046-.098.089-.199.145-.294.043-.074.096-.143.144-.216.056-.085.11-.172.172-.254.051-.068.108-.13.163-.195.067-.082.132-.165.205-.243.051-.056.106-.106.16-.159.08-.082.159-.165.242-.24.044-.04.088-.076.131-.115a8.23 8.23 0 0 1 .291-.25l.068-.05a8.83 8.83 0 0 1 .31-.238l.12-.069.006-.007c.042-.024.088-.055.131-.079.132-.078.264-.157.402-.245.039-.025.077-.045.117-.07l.226-.153c.044-.03.087-.06.13-.092a15.443 15.443 0 0 1 1.979-.932c2.781-1.106 6.292-1.714 9.886-1.714 9.046 0 15.35 3.646 15.35 6.92Zm-15.35-9.92c-3.197 0-6.25.428-8.957 1.231.009-.116.017-.233.017-.34V9.93C36.71 4.36 28.65 0 18.36 0 8.065 0 0 4.36 0 9.93v35.1c0 5.532 9.459 8.52 18.36 8.52 3.187 0 6.233-.36 8.94-1.035v2.964c0 4.857 7.889 8.52 18.35 8.52C56.111 64 64 60.337 64 55.48V28.79c0-5.563-8.061-9.92-18.35-9.92Z" fill="currentColor"/></svg>
